assets/img/braze_icons/shield-dollar.svg

<svg fill="none" height="24" viewBox="0 0 24 24" width="24" xmlns="http://www.w3.org/2000/svg"><path clip-rule="evenodd" d="m11.714 1.08867c.1897-.02741.3824-.02741.5721 0 .2186.0316.422.10845.5836.16948l.0432.01631 5.4925 2.05952c.6178.23065 1.1603.43321 1.5781.80143.3655.32212.6471.72842.8204 1.18376.198.52051.1972 1.09963.1963 1.75907l-.0002 4.92186c0 2.8266-1.5373 5.1832-3.199 6.9144-1.6729 1.7428-3.587 2.9738-4.5991 3.5642l-.041.0241c-.1847.1084-.4244.2492-.7415.3172-.2595.0556-.5793.0556-.8387 0-.3172-.068-.5569-.2088-.7416-.3172l-.041-.0241c-1.01208-.5904-2.92612-1.8214-4.59902-3.5642-1.66177-1.7312-3.19906-4.0878-3.19906-6.9144l-.00013-4.92185c-.00096-.65945-.0018-1.23857.19627-1.75908.17327-.45534.45483-.86164.82035-1.18376.41782-.36822.96036-.57078 1.57815-.80143l5.49244-2.05952.0433-.01631c.1615-.06103.365-.13788.5836-.16948zm1.286 4.91133c0-.55228-.4477-1-1-1s-1 .44772-1 1v.5c-1.65685 0-3 1.34315-3 3 0 1.6569 1.34315 3 3 3h2c.5523 0 1 .4477 1 1s-.4477 1-1 1h-2.1333c-.332 0-.6221-.1864-.7684-.4649-.25678-.489-.86132-.6772-1.35028-.4204-.48896.2567-.67718.8613-.4204 1.3502.47813.9105 1.43484 1.5351 2.53908 1.5351h.1333v.5c0 .5523.4477 1 1 1s1-.4477 1-1v-.5c1.6569 0 3-1.3431 3-3s-1.3431-3-3-3h-2c-.5523 0-1-.4477-1-1 0-.55228.4477-1 1-1h2.1333c.332 0 .6221.1864.7684.46494.2568.48896.8613.67718 1.3503.4204.4889-.25678.6772-.86132.4204-1.35028-.4782-.91047-1.4349-1.53506-2.5391-1.53506h-.1333z" fill="#801ed7" fill-rule="evenodd"/></svg>

<svg width="24" height="24" viewBox="0 0 24 24" fill="none" xmlns="http://www.w3.org/2000/svg">
<path fill-rule="evenodd" clip-rule="evenodd" d="M11.714 1.08867C11.9037 1.06126 12.0964 1.06126 12.2861 1.08867C12.5047 1.12027 12.7081 1.19712 12.8697 1.25815L12.9129 1.27446L18.4054 3.33398C19.0232 3.56463 19.5657 3.76719 19.9835 4.13541C20.349 4.45753 20.6306 4.86383 20.8039 5.31917C21.0019 5.83968 21.0011 6.4188 21.0002 7.07824L21 12.0001C21 14.8267 19.4627 17.1833 17.801 18.9145C16.1281 20.6573 14.214 21.8883 13.2019 22.4787L13.1609 22.5028C12.9762 22.6112 12.7365 22.752 12.4194 22.82C12.1599 22.8756 11.8401 22.8756 11.5807 22.82C11.2635 22.752 11.0238 22.6112 10.8391 22.5028L10.7981 22.4787C9.78602 21.8883 7.87198 20.6573 6.19908 18.9145C4.53731 17.1833 3.00002 14.8267 3.00002 12.0001L2.99989 7.07825C2.99893 6.4188 2.99809 5.83968 3.19616 5.31917C3.36943 4.86383 3.65099 4.45753 4.01651 4.13541C4.43433 3.76719 4.97687 3.56463 5.59466 3.33398L11.0871 1.27446L11.1304 1.25815C11.2919 1.19712 11.4954 1.12027 11.714 1.08867ZM13 6C13 5.44772 12.5523 5 12 5C11.4477 5 11 5.44772 11 6V6.5C9.34315 6.5 8 7.84315 8 9.5C8 11.1569 9.34315 12.5 11 12.5H13C13.5523 12.5 14 12.9477 14 13.5C14 14.0523 13.5523 14.5 13 14.5H10.8667C10.5347 14.5 10.2446 14.3136 10.0983 14.0351C9.84152 13.5461 9.23698 13.3579 8.74802 13.6147C8.25906 13.8714 8.07084 14.476 8.32762 14.9649C8.80575 15.8754 9.76246 16.5 10.8667 16.5H11V17C11 17.5523 11.4477 18 12 18C12.5523 18 13 17.5523 13 17V16.5C14.6569 16.5 16 15.1569 16 13.5C16 11.8431 14.6569 10.5 13 10.5H11C10.4477 10.5 10 10.0523 10 9.5C10 8.94772 10.4477 8.5 11 8.5H13.1333C13.4653 8.5 13.7554 8.6864 13.9017 8.96494C14.1585 9.4539 14.763 9.64212 15.252 9.38534C15.7409 9.12856 15.9292 8.52402 15.6724 8.03506C15.1942 7.12459 14.2375 6.5 13.1333 6.5H13V6Z" fill="#801ED7"/>
</svg>
